X: 1
T: TWIN KATY'S -- REEL
B: Ryan's Mammoth Collection of Fiddle Tunes
R: reel
M: 2/4
L: 1/16
Z: Contributed 20010523141034 by John Chambers jc:trillian.mit.edu
K: G
vdc"^Segno"|]\
  ~BABc dcAc | BGGB d2cA | BABc d2cA | d2cA BGG2 \
| ~BABc dcAc | BGGB d2cA | BABc d2cA | d2cA BGG2 "^fermat:a"[|]:|
|: fgaf g2fd | dcAc d2de | fgaf g2fd | dcAc BGG2 \
|  fgaf g2fd | dcAc d2de | fgaf gbag | fdcA BGAc "^Segno"[|]:|
